X:1
T:Rutgers, LM
T:Rutgers, LM
T:Homer Newton Bartlett, 1897
T:Public Domain Courtesy of the Cyber Hymnal™
C:Homer Newton Bartlett, 1897
Z:Public Domain
Z:Courtesy of the Cyber Hymnal™
%%score ( 1 2 ) ( 3 4 )
L:1/8
Q:1/4=150
M:4/2
K:G
V:1 treble 
V:2 treble 
V:3 bass 
V:4 bass 
V:1
 [GB]4 [FA]2 G2 [Fc]4 [GB]4 | [GA]4 [Fc]4 [GB]8 | A4 [Fd]2 [Gd]2 [A^c]4 [Ad]4 | B4 ^c4 [Ad]8 | %4
 B4 [A=c]2 [Gd]2 [Ge]4 [Gd]4 | [A^c]4 [A=c]4 [AB]8 | [^GB]8 [Ae]4 [Bd]4 | [Ac]8- [Ac]8 | %8
 [GA]8 [GB]4 [Fc]4 | [GB]8- [GB]8 |] %10
V:2
 x6 G2 x8 | x16 | A4 x12 | B4 A2 G2 x8 | B4 x12 | x16 | x16 | x16 | x16 | x16 |] %10
V:3
 [G,,D,]4 [C,D,]2 [B,,D,]2 [A,,D,]4 [B,,D,]4 | [C,E,]4 D,4 [G,,D,]8 | %2
 [F,,D,]4 [B,,D,]2 [_B,,D,]2 [A,,E,]4 [F,,D,]4 | (A,2 G,2) (F,2 E,2) [D,F,]8 | %4
 [G,,D,]4 [A,,F,]2 [B,,=F,]2 [C,E,]4 [B,,G,]4 | [A,,G,]4 [D,F,]4 [^D,F,]8 | %6
 E,8 [F,,E,]4 [=G,,E,]4 | [A,,E,]8- [A,,E,]8 | D,8 D,4 [D,,D,]4 | [G,,D,]8- [G,,D,]8 |] %10
V:4
 x16 | x4 D,4 x8 | x16 | G,,4 A,,4 x8 | x16 | x16 | E,8 x8 | x16 | D,8 D,4 x4 | x16 |] %10

